brandFactory_export/1.Light/Agenda_1Light.svg

<?xml version="1.0" encoding="UTF-8"?>
<svg width="24px" height="24px" viewBox="0 0 24 24" version="1.1" xmlns="http://www.w3.org/2000/svg" xmlns:xlink="http://www.w3.org/1999/xlink">
    <title>1.Light/Agenda_1Light</title>
    <g id="Symbols" stroke="none" stroke-width="1" fill="none" fill-rule="evenodd">
        <g id="1.Light/Agenda_1Light" fill="#5CB615" fill-rule="nonzero">
            <path d="M17.0504202,0.0168067227 C18.7243697,0.0168067227 20.0890756,1.37815126 20.0890756,3.05546218 L20.0890756,20.6218487 C20.0890756,22.292437 18.7243697,23.6571429 17.0504202,23.6571429 L6.2605042,23.6571429 C4.46218487,23.6571429 3,22.194958 3,20.3966387 L3,2.94453782 C3,1.33109244 4.31428571,0.0168067227 5.92773109,0.0168067227 L17.0504202,0.0168067227 Z M5.92773109,0.722689076 C4.70420168,0.722689076 3.7092437,1.71764706 3.7092437,2.94117647 L3.7092437,20.3932773 C3.7092437,21.8016807 4.85546219,22.9445378 6.2605042,22.9445378 L17.0504202,22.9445378 C17.1765306,22.9445378 17.300339,22.934454 17.421081,22.9150508 L17.421081,0.755537445 C17.300339,0.736134186 17.1765306,0.72605042 17.0504202,0.72605042 L5.92773109,0.72605042 L5.92773109,0.722689076 Z M19.379,15.8078067 L18.126,15.8078067 L18.1265021,22.6805904 C18.8706411,22.2911768 19.3798319,21.5112745 19.3798319,20.6151261 L19.379,15.8078067 Z M12.3915966,12.5277311 C13.4,12.5277311 14.2268908,12.8369748 14.7882353,13.4184874 C15.302521,13.9563025 15.5747899,14.6957983 15.5747899,15.5630252 L15.5747899,16.7495798 C15.5747899,16.9512605 15.410084,17.1159664 15.2084034,17.1159664 L6.03529412,17.1159664 C5.93781513,17.1159664 5.84369748,17.0789916 5.77647059,17.0084034 C5.7092437,16.9411765 5.66890756,16.8470588 5.66890756,16.7495798 L5.66890756,15.5630252 C5.66890756,14.6957983 5.94117647,13.9529412 6.45546219,13.4184874 C7.01680672,12.8336134 7.84369748,12.5277311 8.85210084,12.5277311 L12.3915966,12.5277311 Z M12.394958,13.2571429 L8.85210084,13.2571429 C7.29243697,13.2571429 6.40168067,14.097479 6.40168067,15.5630252 L6.40168067,16.3831933 L14.8453782,16.3831933 L14.8453782,15.5630252 C14.8453782,14.097479 13.9512605,13.2571429 12.394958,13.2571429 Z M19.379,8.57080672 L18.126,8.57080672 L18.126,15.1018067 L19.379,15.1018067 L19.379,8.57080672 Z M10.6235294,5.95630252 C12.4252101,5.95630252 13.4201681,6.94789916 13.4201681,8.75294118 C13.4168067,10.5478992 12.4252101,11.5394958 10.6235294,11.5394958 C8.82521008,11.5394958 7.83361345,10.5478992 7.83361345,8.75294118 C7.83361345,6.9512605 8.82521008,5.95630252 10.6235294,5.95630252 Z M10.6235294,6.66218487 C9.93445378,6.66218487 9.41344538,6.8302521 9.07394958,7.15966387 C8.7210084,7.49915966 8.54285714,8.03361345 8.54285714,8.74957983 C8.54285714,9.46554622 8.7210084,10 9.07058824,10.3361345 C9.41008403,10.6621849 9.93109244,10.8302521 10.6201681,10.8302521 C11.3092437,10.8302521 11.8336134,10.6655462 12.1764706,10.3361345 C12.5294118,9.99663866 12.707563,9.46218487 12.707563,8.74957983 C12.707563,8.03361345 12.5294118,7.49915966 12.1764706,7.15966387 C11.8336134,6.8302521 11.312605,6.66218487 10.6235294,6.66218487 Z M18.1265021,0.989997848 L18.126,7.86480672 L19.379,7.86480672 L19.3798319,3.05546218 C19.3798319,2.15931373 18.8706411,1.3794114 18.1265021,0.989997848 Z" id="Agenda_1Light"></path>
        </g>
    </g>
</svg>

<svg width="24" height="24" viewBox="0 0 24 24" xmlns="http://www.w3.org/2000/svg"><path d="M17.05.017a3.042 3.042 0 013.04 3.038v17.567a3.043 3.043 0 01-3.04 3.035H6.26A3.264 3.264 0 013 20.397V2.945A2.932 2.932 0 015.928.017H17.05zM5.928.723A2.22 2.22 0 003.709 2.94v17.452a2.554 2.554 0 002.552 2.552h10.79c.126 0 .25-.01.37-.03V.755c-.12-.019-.244-.029-.37-.029H5.927V.723zm13.451 15.085h-1.253v6.873a2.332 2.332 0 001.254-2.066l-.001-4.807zm-6.987-3.28c1.008 0 1.835.309 2.396.89.515.538.787 1.278.787 2.145v1.187a.367.367 0 01-.367.366H6.035a.37.37 0 01-.366-.366v-1.187c0-.867.272-1.61.786-2.145.562-.584 1.389-.89 2.397-.89h3.54zm.003.73H8.852c-1.56 0-2.45.84-2.45 2.305v.82h8.443v-.82c0-1.466-.894-2.306-2.45-2.306zm6.984-4.687h-1.253v6.53h1.253v-6.53zm-8.755-2.615c1.801 0 2.796.992 2.796 2.797-.003 1.795-.995 2.786-2.796 2.786-1.799 0-2.79-.991-2.79-2.786 0-1.802.991-2.797 2.79-2.797zm0 .706c-.69 0-1.21.168-1.55.498-.353.34-.531.874-.531 1.59 0 .716.178 1.25.528 1.586.34.326.86.494 1.55.494.688 0 1.213-.164 1.555-.494.353-.34.532-.874.532-1.586 0-.716-.179-1.25-.532-1.59-.342-.33-.863-.498-1.552-.498zM18.127.99l-.001 6.875h1.253v-4.81c0-.896-.508-1.676-1.252-2.065z" fill="#5CB615" fill-rule="nonzero"/></svg>
